X:1
T:Title
%%score 1 2 3
L:1/8
M:3/2
K:C
V:1 treble nm="Part_1"
V:2 treble-8 nm="Part_2"
V:3 treble-8 nm="Part_3"
V:1
 c8 B4 | A4 c6 B2 | d4 c4 A2 B2 | c4 B2 A2 c4- | c2 B2 A4 G4 | F4 G2 A2 F2 E2 | G12 || G4 F4 E4 | %8
 G2 F2 D4 F2 G2 | A4 G2 E2 F4 | G2 _B2 A2 G3 F2 E | G12 || G4 G2 A2 G4 | E3 D F4 E4 | D4 z2 F4 E2 | %15
 D4 F2 G2 A4 | G2 E2 F4 G4 | G12 || G4 A4 F2 E2 | G4 A4 G4 | c4 c2 B2 A4 | G4 c4 B2 A2 | %22
 c4 A2 F2 G4 | F2 A2 D2 G2 F3 E | G12 || A6 B2 c4 | d4 c2 A2 B4 | A3 B c2 d2 c3 B | d4 c4 B4 | %29
 G4 A6 G2 | G4 F6 E2 | G2 D2 E2 G2 F3 E | G12 || G4 A4 G4 | G2 G2 F2 E2 F4 | E4 D4 z4 | %36
 D4 E2 G2 F2 E2 | G4 z2 A4 G2 | A2 B2 c4 B2 A2 | c4 A4 G2 E2 | F2 _B2 A2 G2 F3 E | G12 || %42
 G6 A2 B4 | d4 c6 B2 | d4 d4 z4 | d4 e4 d2 B2 | c4 B4 z4 | A6 B2 c4- | c4 A4 c4 | B12 | c6 B2 A4 | %51
 G4 F6 E2 | G4 c2 B2 G4- | G2 E2 G8 || c8 B4 | A4 c2 B2 G4 | c8 B4 | A4 B2 d2 c2 B2 | d4 e4 d2 B2 | %59
 c6 d2 B2 A2 | d12 || G4 G4 G4 | A6 c2 B2 A2 | c4 B2 c2 A2 GF | E2 F2 G4 G4 | z2 G2 A2 B2 c4 | %66
 A2 d4 c2 _B2 A2 | c4 d2 _B2 G2 AB | c2 A3 G G2 F3 E | G12 || c8 A4 | c4 B6 A2 | c8 A2 F2 | %73
 G2 _B2 A2 GF E2 D2 | F4 z4 F4 | G2 A4 B2 c4 | z2 c4 B4 A2 | c4 A4 z4 | _B4 A4 G4 | F2 A4 G2 F3 E | %80
 G12 || G4 d4 d4 | e4 d2 B2 c4 | d4 c4 B4 | A4 B2 d2 c2 B2 | d8 z4 | G4 d4 d4 | e4 d4 c4 | %88
 d4 c4 B4 | A4 c4 d4 | c4 z2 B4 A2 | c4 A4 G4 | F4 D2 G2 F2 E2 | G12 |] %94
V:2
 g8 f4- | f2 d2 e2 g2 f2 e2 | g4 e2 g2 f2 d2 | cB A2 G4 g4 | a4 f2 e2 d4 | z2 c2 d2 e2 c4 | d12 || %7
 d4 _B4 c4 | d4 G4 z2 _B2 | A2 F2 G4 c4 | d8 c4 | d12 || d8 e4 | g2 a4 f2 g4 | a8 A4 | %15
 B2 c2 d4 e4 | z2 g2 f2 d2 e3 d | d12 || d4 f2 e2 c4 | d4 e2 f2 e2 d2 | c4 F8 | c6 A2 G4 | %22
 z2 A4 _B2 G2 c2 | z2 A2 G2 d4 c2 | d12 || d8 A4 | B4 A4 G4 | d4 A2 B2 A4 | g2 f4 e2 g3 f | %29
 d2 e2 d2 cB A2 d2- | d2 e2 f2 e2 c4 | d2 B2 A2 G2 c4 | d12 || d4 e6 d2- | d4 G2 A2 F4 | %35
 A4 _B2 G4 d2 | _B2 A4 G2 c4 | d2 e2 f4 g2 e2 | d4 c4 G4 | z2 g2 f2 d2 e4 | d2 G4 d2 c2 B2 | d12 || %42
 e8 e4 | d4 A8 | B2 G4 B2 A4 | G4 z2 g4 g2 | f2 e2 g2 f2 d4 | z4 d4 c4 | g4 f4 A4- | A4 G4 z4 | %50
 f2 e4 d2 f2 e2 | d6 c4 B2 | d4 c2 e4 c2 | g2 f2 d8 || c4 A4 G4 | F8 c4 | A8 G4 | d2 f2 e2 d2 A4 | %58
 B2 G2 c4 d4 | f2 e4 d2 g4 | a12 || d4 e4 d4 | c2 d2 e4 z2 f2 | g2 e4 c2 d4 | c4 e8 | d4 f4 e4 | %66
 d8 f4 | e4 d8 | c6 d2 c2 B2 | d12 || g4 e2 c2 d4 | c4 G8 | g6 e2 f4 | d4 c2 d2 _B3 A | %74
 c2 d4 c4 f2 | e2 d2 f4 e2 g2- | g2 a2 g4 G4 | A4 z2 A2 F2 E2 | G4 z2 c2 _B2 G2 | d2 c2 A4 _B2 c2 | %80
 d12 || d4 B2 d2 G4 | g4 f4 g4 | G2 B2 A4 G4 | d4 G4 z2 g2 | a2 f2 g2 f2 d4 | e4 d2 a4 f2 | %87
 g2 z2 G2 A4 c2 | B4 A2 c2 G2 d2 | f4 e2 f4 g2 | e4 c2 d2 G4 | z2 g2 f2 d2 z2 e2 | %92
 d2 B2 z2 d2 c2 c2 | d12 |] %94
V:3
 c8 d4- | d4 A8 | G4 z2 c2 d4 | e2 c2 d4 c4 | A4 d2 c2 B2 G2 | A4 B2 c2 A4 | G12 || G4 d4 A4 | %8
 G4 _B2 c2 d4 | c2 A2 _B2 c2 A4 | G4 F2 _B2 c2 A2 | G12 || G8 c4- | c4 d4 c4 | f2 e2 d4 c4 | %15
 d4 B4 A2 B2 | c4 d4 c2 B2 | G12 || G4 F4 A4 | _B4 A4 c4 | z4 f8 | e6 c2 d4 | c4 d4 e4 | %23
 d2 c2 _B2 G2 A4 | G12 || d4 f4 e4 | d4 e2 f2 g4 | a2 f4 d2 e4 | d4 A4 G4- | G2 F2 F6 G2 | %30
 B2 c2 d2 c2 A4 | G4 c2 B2 A4 | G12 || G4 c6 _B2 | G4 _B2 A4 d2 | c2 _B2 d4 B2 G2- | %36
 G2 F2 c2 _B2 A4 | G4 d4 e4 | f2 g2 e2 c2 d4 | c4 z4 c4 | d4 c2 _B2 A4 | G12 || c8 g4 | f4 e8 | %44
 d4 z2 g2 f2 e2 | g4 c4 B2 G2 | A4 G8 | d2 e2 f6 e2 | c4 z2 d2 c2 f2- | f2 e2 g2 f2 d4 | %50
 c4 A2 d4 c2 | B4 A8 | G4 z4 c2 B2 | G12 || c8 d4 | f2 e2 c4 z2 c2 | c4 e2 f2 g4 | f2 d4 f2 e4 | %58
 d2 g4 e2 f2 g2 | a4 g2 f2 e4 | d12 || G4 c4 B4 | A8 d4 | c4 g4 f2 e2 | g4 c8 | G4 d4 c4 | %66
 d2 f4 e2 d4 | c4 _B2 G4 F2 | A2 F2 c2 _B2 A4 | G12 || c8 f4 | e4 d8 | c8 d4 | _B2 G2 A2 B2 G4 | %74
 F2 _B4 A2 F4 | c4 d4 z2 c2- | c2 f2 e4 d4 | z2 c2 d2 c2 A4 | z2 G2 A2 F2 G2 _B2- | B2 A2 c4 d4 | %80
 G12 || G8 B4 | c4 d4 e4 | z2 d2 e2 f2 g4 | a2 f2 g4 e4 | d4 G8 | z2 g4 f2 d4 | c2 g4 f2 e4 | %88
 d2 f4 e2 d4 | d2 c4 A2 B4 | c2 A4 G2 d4 | c4 z2 f2 e2 c2 | d4 B2 G2 A4 | G12 |] %94

